mimes/32/model.svg

<?xml version="1.0" encoding="UTF-8" standalone="no"?>
<svg
   xmlns:dc="http://purl.org/dc/elements/1.1/"
   xmlns:cc="http://creativecommons.org/ns#"
   xmlns:rdf="http://www.w3.org/1999/02/22-rdf-syntax-ns#"
   xmlns:svg="http://www.w3.org/2000/svg"
   xmlns="http://www.w3.org/2000/svg"
   xmlns:xlink="http://www.w3.org/1999/xlink"
   xmlns:sodipodi="http://sodipodi.sourceforge.net/DTD/sodipodi-0.dtd"
   xmlns:inkscape="http://www.inkscape.org/namespaces/inkscape"
   version="1.1"
   width="32"
   height="32"
   id="svg3182"
   inkscape:version="0.91 r13725"
   sodipodi:docname="model.svg">
  <sodipodi:namedview
     pagecolor="#ffffff"
     bordercolor="#666666"
     borderopacity="1"
     objecttolerance="10"
     gridtolerance="10"
     guidetolerance="10"
     inkscape:pageopacity="0"
     inkscape:pageshadow="2"
     inkscape:window-width="640"
     inkscape:window-height="480"
     id="namedview2068" />
  <defs
     id="defs3184">
    <linearGradient
       id="linearGradient3977">
      <stop
         id="stop3979"
         style="stop-color:#ffffff;stop-opacity:1"
         offset="0" />
      <stop
         id="stop3981"
         style="stop-color:#ffffff;stop-opacity:0.23529412"
         offset="0.03626217" />
      <stop
         id="stop3983"
         style="stop-color:#ffffff;stop-opacity:0.15686275"
         offset="0.95056331" />
      <stop
         id="stop3985"
         style="stop-color:#ffffff;stop-opacity:0.39215687"
         offset="1" />
    </linearGradient>
    <linearGradient
       id="linearGradient3600-4">
      <stop
         id="stop3602-7"
         style="stop-color:#f4f4f4;stop-opacity:1"
         offset="0" />
      <stop
         id="stop3604-6"
         style="stop-color:#dbdbdb;stop-opacity:1"
         offset="1" />
    </linearGradient>
    <linearGradient
       id="linearGradient5060">
      <stop
         id="stop5062"
         style="stop-color:#000000;stop-opacity:1"
         offset="0" />
      <stop
         id="stop5064"
         style="stop-color:#000000;stop-opacity:0"
         offset="1" />
    </linearGradient>
    <linearGradient
       id="linearGradient5048">
      <stop
         id="stop5050"
         style="stop-color:#000000;stop-opacity:0"
         offset="0" />
      <stop
         id="stop5056"
         style="stop-color:#000000;stop-opacity:1"
         offset="0.5" />
      <stop
         id="stop5052"
         style="stop-color:#000000;stop-opacity:0"
         offset="1" />
    </linearGradient>
    <linearGradient
       x1="23.99999"
       y1="5.5641499"
       x2="23.99999"
       y2="43"
       id="linearGradient3013"
       xlink:href="#linearGradient3977"
       gradientUnits="userSpaceOnUse"
       gradientTransform="matrix(0.56756757,0,0,0.72972971,2.378382,-2.5135063)" />
    <linearGradient
       x1="25.132275"
       y1="0.98520643"
       x2="25.132275"
       y2="47.013336"
       id="linearGradient3016"
       xlink:href="#linearGradient3600-4"
       gradientUnits="userSpaceOnUse"
       gradientTransform="matrix(0.65714319,0,0,0.63012397,0.27649544,-1.0896478)" />
    <radialGradient
       cx="605.71429"
       cy="486.64789"
       r="117.14286"
       fx="605.71429"
       fy="486.64789"
       id="radialGradient3021"
       xlink:href="#linearGradient5060"
       gradientUnits="userSpaceOnUse"
       gradientTransform="matrix(0.01566318,0,0,0.00823529,17.610433,25.980565)" />
    <radialGradient
       cx="605.71429"
       cy="486.64789"
       r="117.14286"
       fx="605.71429"
       fy="486.64789"
       id="radialGradient3024"
       xlink:href="#linearGradient5060"
       gradientUnits="userSpaceOnUse"
       gradientTransform="matrix(-0.01566318,0,0,0.00823529,14.389566,25.980565)" />
    <linearGradient
       x1="302.85715"
       y1="366.64789"
       x2="302.85715"
       y2="609.50507"
       id="linearGradient3027"
       xlink:href="#linearGradient5048"
       gradientUnits="userSpaceOnUse"
       gradientTransform="matrix(0.04576928,0,0,0.00823529,-0.5423243,25.980548)" />
  </defs>
  <metadata
     id="metadata3187">
    <rdf:RDF>
      <cc:Work
         rdf:about="">
        <dc:format>image/svg+xml</dc:format>
        <dc:type
           rdf:resource="http://purl.org/dc/dcmitype/StillImage" />
        <dc:title />
      </cc:Work>
    </rdf:RDF>
  </metadata>
  <rect
     width="22.100021"
     height="2"
     x="4.9499893"
     y="29"
     id="rect2879"
     style="opacity:0.15;fill:url(#linearGradient3027);fill-opacity:1;fill-rule:nonzero;stroke:none;stroke-width:1;marker:none;visibility:visible;display:inline;overflow:visible" />
  <path
     d="m 4.9499887,29.000086 c 0,0 0,1.99989 0,1.99989 -0.806615,0.0038 -1.950002,-0.448074 -1.950002,-1.000074 0,-0.552 0.900121,-0.999816 1.950002,-0.999816 z"
     id="path2881"
     style="opacity:0.15;fill:url(#radialGradient3024);fill-opacity:1;fill-rule:nonzero;stroke:none;stroke-width:1;marker:none;visibility:visible;display:inline;overflow:visible" />
  <path
     d="m 27.050011,29.000086 c 0,0 0,1.99989 0,1.99989 0.806614,0.0038 1.950002,-0.448074 1.950002,-1.000074 0,-0.552 -0.900122,-0.999816 -1.950002,-0.999816 z"
     id="path2883"
     style="opacity:0.15;fill:url(#radialGradient3021);fill-opacity:1;fill-rule:nonzero;stroke:none;stroke-width:1;marker:none;visibility:visible;display:inline;overflow:visible" />
  <path
     d="m 4.5479004,0.49996093 c 5.270482,0 23.0000366,0.00185 23.0000366,0.00185 l 2.8e-5,28.99822807 c 0,0 -15.333376,0 -23.0000646,0 0,-9.666692 0,-19.333383 0,-29.00007387 z"
     id="path4160-3"
     style="fill:url(#linearGradient3016);fill-opacity:1;stroke:none;display:inline" />
  <path
     d="m 26.5,28.5 -21,0 0,-27 21,0 z"
     id="rect6741-1"
     style="fill:none;stroke:url(#linearGradient3013);stroke-width:0.99999994;stroke-linecap:round;stroke-linejoin:round;stroke-miterlimit:4;stroke-opacity:1;stroke-dasharray:none;stroke-dashoffset:0" />
  <path
     d="m 4.499961,0.49996093 c 5.270482,0 23.000037,0.00185 23.000037,0.00185 l 2.8e-5,28.99822807 c 0,0 -15.333376,0 -23.000065,0 0,-9.666692 0,-19.333383 0,-29.00007387 z"
     id="path4160-3-4"
     style="opacity:0.3;fill:none;stroke:#000000;stroke-width:0.99992186;stroke-linecap:butt;stroke-linejoin:round;stroke-miterlimit:4;stroke-opacity:1;stroke-dasharray:none;stroke-dashoffset:0;display:inline" />
  <path
     id="path3054"
     style="fill:none;stroke:#ee5216;stroke-width:1.35193574;stroke-linecap:butt;stroke-linejoin:miter;stroke-miterlimit:4;stroke-opacity:1;stroke-dasharray:none;display:inline"
     d="m 16.000001,13.860912 7.277976,-3.121305 m -7.277976,12.526698 6.975839,-4.212832 0.302144,-8.313697 -7.26038,-2.7878245 m -0.01761,15.3143535 0,-9.405393 -7.249991,-3.121136 M 16.000001,23.266305 9.0593681,19.053473 8.7220161,10.739776 16.017604,7.9343482" />
</svg>

<svg xmlns="http://www.w3.org/2000/svg" xmlns:xlink="http://www.w3.org/1999/xlink" viewBox="0 0 32 32"><defs><linearGradient id="a"><stop offset="0" stop-color="#fff"/><stop offset=".036" stop-color="#fff" stop-opacity=".235"/><stop offset=".951" stop-color="#fff" stop-opacity=".157"/><stop offset="1" stop-color="#fff" stop-opacity=".392"/></linearGradient><linearGradient id="b"><stop offset="0" stop-color="#f4f4f4"/><stop offset="1" stop-color="#dbdbdb"/></linearGradient><linearGradient id="c"><stop offset="0"/><stop offset="1" stop-opacity="0"/></linearGradient><linearGradient id="d"><stop offset="0" stop-opacity="0"/><stop offset=".5"/><stop offset="1" stop-opacity="0"/></linearGradient><linearGradient x1="24" y1="5.564" x2="24" y2="43" id="i" xlink:href="#a" gradientUnits="userSpaceOnUse" gradientTransform="matrix(.56757 0 0 .72973 2.378 -2.514)"/><linearGradient x1="25.132" y1=".985" x2="25.132" y2="47.013" id="h" xlink:href="#b" gradientUnits="userSpaceOnUse" gradientTransform="matrix(.65714 0 0 .63012 .276 -1.09)"/><radialGradient cx="605.714" cy="486.648" r="117.143" fx="605.714" fy="486.648" id="g" xlink:href="#c" gradientUnits="userSpaceOnUse" gradientTransform="matrix(.01566 0 0 .00824 17.61 25.98)"/><radialGradient cx="605.714" cy="486.648" r="117.143" fx="605.714" fy="486.648" id="f" xlink:href="#c" gradientUnits="userSpaceOnUse" gradientTransform="matrix(-.01566 0 0 .00824 14.39 25.98)"/><linearGradient x1="302.857" y1="366.648" x2="302.857" y2="609.505" id="e" xlink:href="#d" gradientUnits="userSpaceOnUse" gradientTransform="matrix(.04577 0 0 .00824 -.542 25.98)"/></defs><path opacity=".15" fill="url(#e)" overflow="visible" d="M4.95 29h22.1v2H4.95z"/><path d="M4.95 29v2c-.807.004-1.95-.448-1.95-1s.9-1 1.95-1z" opacity=".15" fill="url(#f)" overflow="visible"/><path d="M27.05 29v2c.807.004 1.95-.448 1.95-1s-.9-1-1.95-1z" opacity=".15" fill="url(#g)" overflow="visible"/><path d="M4.548.5l23 .002V29.5h-23V.5z" fill="url(#h)"/><path d="M26.5 28.5h-21v-27h21z" fill="none" stroke="url(#i)" stroke-linecap="round" stroke-linejoin="round"/><path d="M4.5.5l23 .002V29.5h-23V.5z" opacity=".3" fill="none" stroke="#000" stroke-linejoin="round"/><path d="M16 13.86l7.278-3.12M16 23.266l6.976-4.213.302-8.313-7.26-2.788M16 23.266V13.86l-7.25-3.12M16 23.266l-6.94-4.213-.338-8.313 7.296-2.806" fill="none" stroke="#ee5216" stroke-width="1.352"/></svg>
